dist/img/svg/pinterest.svg

<svg width="16" height="17" viewBox="0 0 16 17" fill="none" xmlns="http://www.w3.org/2000/svg">
<path d="M2.28564 2.69531C3.83252 1.14844 5.6958 0.375 7.87549 0.375C10.0552 0.375 11.9067 1.14844 13.4302 2.69531C14.9771 4.21875 15.7505 6.07031 15.7505 8.25C15.7505 10.4297 14.9771 12.293 13.4302 13.8398C11.9067 15.3633 10.0552 16.125 7.87549 16.125C7.07861 16.125 6.32861 16.0195 5.62549 15.8086C6.04736 15.0586 6.31689 14.4961 6.43408 14.1211L6.99658 11.9414C7.34814 12.5977 7.98096 12.9258 8.89502 12.9258C10.1606 12.9258 11.1802 12.4219 11.9536 11.4141C12.7505 10.4062 13.1489 9.11719 13.1489 7.54688C13.1489 6.32812 12.6802 5.27344 11.7427 4.38281C10.8052 3.46875 9.60986 3.01172 8.15674 3.01172C6.42236 3.01172 5.05127 3.52734 4.04346 4.55859C3.03564 5.56641 2.53174 6.69141 2.53174 7.93359C2.53174 9.50391 3.0708 10.5117 4.14893 10.957C4.35986 11.0508 4.50049 10.9805 4.5708 10.7461C4.5708 10.6992 4.58252 10.5938 4.60596 10.4297C4.65283 10.2656 4.68799 10.1602 4.71143 10.1133C4.7583 9.97266 4.72314 9.83203 4.60596 9.69141C4.25439 9.26953 4.07861 8.75391 4.07861 8.14453C4.07861 7.11328 4.43018 6.23438 5.1333 5.50781C5.85986 4.75781 6.79736 4.38281 7.9458 4.38281C8.97705 4.38281 9.78564 4.66406 10.3716 5.22656C10.9575 5.76562 11.2505 6.48047 11.2505 7.37109C11.2505 8.54297 11.0161 9.53906 10.5474 10.3594C10.0786 11.1562 9.48096 11.5547 8.75439 11.5547C8.33252 11.5547 7.99268 11.4141 7.73486 11.1328C7.47705 10.8281 7.39502 10.4648 7.48877 10.043C7.53564 9.80859 7.61768 9.49219 7.73486 9.09375C7.87549 8.69531 7.98096 8.34375 8.05127 8.03906C8.14502 7.73438 8.19189 7.47656 8.19189 7.26562C8.19189 6.9375 8.09814 6.65625 7.91064 6.42188C7.72314 6.1875 7.46533 6.07031 7.13721 6.07031C6.71533 6.07031 6.35205 6.26953 6.04736 6.66797C5.76611 7.04297 5.62549 7.52344 5.62549 8.10938C5.62549 8.32031 5.64893 8.53125 5.6958 8.74219C5.74268 8.95312 5.78955 9.11719 5.83643 9.23438L5.87158 9.375C5.28564 11.8125 4.9458 13.2422 4.85205 13.6641C4.71143 14.2266 4.66455 14.8242 4.71143 15.457C3.30518 14.8242 2.16846 13.8633 1.30127 12.5742C0.434082 11.2852 0.000488281 9.84375 0.000488281 8.25C0.000488281 6.07031 0.762207 4.21875 2.28564 2.69531Z"/>
</svg>

<svg width="16" height="17" fill="none" xmlns="http://www.w3.org/2000/svg"><path d="M2.286 2.695c1.547-1.547 3.41-2.32 5.59-2.32 2.18 0 4.03.773 5.554 2.32 1.547 1.524 2.32 3.375 2.32 5.555 0 2.18-.773 4.043-2.32 5.59-1.523 1.523-3.375 2.285-5.555 2.285a7.793 7.793 0 01-2.25-.316c.422-.75.692-1.313.81-1.688l.562-2.18c.351.657.984.985 1.898.985 1.266 0 2.285-.504 3.059-1.512.796-1.008 1.195-2.297 1.195-3.867 0-1.219-.469-2.274-1.406-3.164-.938-.914-2.133-1.371-3.586-1.371-1.735 0-3.106.515-4.114 1.547C3.036 5.566 2.532 6.69 2.532 7.934c0 1.57.539 2.578 1.617 3.023.21.094.351.023.422-.21 0-.048.012-.153.035-.317.047-.164.082-.27.105-.317.047-.14.012-.281-.105-.422-.352-.421-.527-.937-.527-1.546 0-1.032.351-1.91 1.054-2.637.727-.75 1.664-1.125 2.813-1.125 1.031 0 1.84.281 2.426.844.585.539.879 1.253.879 2.144 0 1.172-.235 2.168-.704 2.988-.468.797-1.066 1.196-1.793 1.196-.421 0-.761-.14-1.02-.422-.257-.305-.339-.668-.245-1.09.047-.234.129-.55.246-.95.14-.398.246-.75.316-1.054a2.7 2.7 0 00.14-.773c0-.329-.093-.61-.28-.844-.188-.234-.446-.352-.774-.352-.422 0-.785.2-1.09.598-.28.375-.422.855-.422 1.441 0 .211.024.422.07.633.048.211.095.375.141.492l.036.141a445.794 445.794 0 00-1.02 4.29 5.636 5.636 0 00-.14 1.792 7.986 7.986 0 01-3.41-2.883C.433 11.285 0 9.844 0 8.25c0-2.18.762-4.031 2.286-5.555z"/></svg>
